X:24
T:Histoire de mon coq
C:Yvon Mimeault
Z:robin.beech@mcgill.ca
S:Brunet et Beaudry
M:4/4
L:1/8
K:G
DFGA BGBG | DFAF EDDB, | G,B,DG BGAB | cBAG EADA |
DFGA BGBG | DFAF EDDB, | G,B,DG BddB | cAA2 G2BG ::
DFGA B2AB | eBAB .g2.e2 | zFGA B2AB | .g2.e2 AGEG |
GFGA B2AB | eBAB .g2.e2 | zFGA Bgge | dBcA G2BG :|

